icons/xstate.svg

<?xml version="1.0" encoding="UTF-8"?>
<svg width="512px" height="160px" viewBox="0 0 512 160" version="1.1" xmlns="http://www.w3.org/2000/svg" xmlns:xlink="http://www.w3.org/1999/xlink" preserveAspectRatio="xMidYMid">
		<g fill="#000000">
				<path d="M40.0963855,0 L132.420884,159.768675 L92.1188755,159.768675 L66.2104418,114.737349 L40.0963855,159.768675 L0,159.768675 L46.0594378,79.9871486 L0,0 L40.0963855,0 Z M132.215261,0 L91.7076305,70.3228916 C79.4936546,48.5413012 79.5730455,22.124507 91.7462878,0.649243142 L92.1188755,0 L132.215261,0 Z"></path>
				<path d="M183.415261,37.0120482 C193.490763,37.2176707 202.33253,40.0963855 209.940562,45.6481928 L202.949398,56.1349398 C196.780723,52.02249 189.995181,49.7606426 182.798394,49.5550201 C178.891566,49.5550201 175.807229,50.5831325 173.339759,52.4337349 C170.666667,54.4899598 169.227309,57.5742972 169.227309,61.4811245 C169.227309,63.9485944 170.049799,66.2104418 171.900402,68.0610442 C173.751004,70.1172691 176.629719,71.5566265 180.742169,72.173494 C183.004016,72.584739 186.088353,72.9959839 189.995181,73.4072289 C197.603213,74.4353414 203.360643,77.3140562 207.061847,81.837751 C210.763052,86.3614458 212.408032,91.502008 212.408032,97.6706827 C211.791165,114.326104 202.33253,122.345382 183.620884,122.551004 C171.489157,122.551004 161.208032,118.644177 152.366265,111.036145 L160.591165,101.57751 C167.171084,107.129317 174.779116,109.80241 183.826506,110.008032 C194.518876,109.80241 199.86506,105.895582 200.070683,98.2875502 C200.070683,91.913253 196.5751,88.2120482 189.378313,86.9783133 C186.088353,86.5670683 182.387149,85.9502008 178.480321,85.3333333 C171.489157,84.0995984 166.142972,81.426506 162.441767,77.3140562 C158.740562,72.9959839 156.684337,67.8554217 156.684337,61.686747 C156.684337,54.2843373 159.151807,48.3212851 163.881124,43.7975904 C168.404819,39.2738956 174.984739,37.0120482 183.415261,37.0120482 Z M290.750201,37.6289157 L290.750201,48.9381526 L268.337349,48.9381526 L268.337349,121.934137 L256,121.934137 L256,48.9381526 L233.587149,48.9381526 L233.587149,37.6289157 L290.750201,37.6289157 Z M338.660241,37.6289157 L368.26988,121.934137 L355.726908,121.934137 L349.35261,103.016867 L318.303614,103.016867 L311.929317,121.934137 L298.769478,121.934137 L328.379116,37.6289157 L338.660241,37.6289157 Z M434.480321,37.6289157 L434.480321,48.9381526 L412.06747,48.9381526 L412.06747,121.934137 L399.73012,121.934137 L399.73012,48.9381526 L377.317269,48.9381526 L377.317269,37.6289157 L434.480321,37.6289157 Z M511.17751,37.6289157 L511.17751,49.5550201 L471.286747,49.5550201 L471.286747,73.6128514 L505.214458,73.6128514 L505.214458,84.9220884 L471.286747,84.9220884 L471.286747,109.80241 L511.17751,109.80241 L511.17751,121.728514 L458.949398,121.728514 L458.949398,37.6289157 L511.17751,37.6289157 Z M334.136546,54.9012048 L333.930924,54.9012048 L322.004819,91.7076305 L345.857028,91.7076305 L334.136546,54.9012048 Z"></path>
		</g>
</svg>

<svg xmlns="http://www.w3.org/2000/svg" viewBox="0 0 511.178 159.769">
  <path d="m40.096 0 92.325 159.769H92.119L66.21 114.737 40.096 159.77H0l46.06-79.782L0 0zm92.12 0L91.707 70.323C79.494 48.54 79.573 22.125 91.746.649L92.12 0zM183.415 37.012c10.076.206 18.918 3.084 26.526 8.636l-6.992 10.487c-6.168-4.113-12.954-6.374-20.15-6.58-3.907 0-6.992 1.028-9.46 2.879-2.672 2.056-4.112 5.14-4.112 9.047 0 2.468.823 4.73 2.673 6.58 1.851 2.056 4.73 3.496 8.842 4.112 2.262.412 5.346.823 9.253 1.234 7.608 1.028 13.366 3.907 17.067 8.43 3.701 4.524 5.346 9.665 5.346 15.834-.617 16.655-10.075 24.674-28.787 24.88-12.132 0-22.413-3.907-31.255-11.515l8.225-9.458c6.58 5.551 14.188 8.224 23.236 8.43 10.692-.206 16.038-4.112 16.244-11.72 0-6.375-3.496-10.076-10.693-11.31-3.29-.41-6.99-1.028-10.898-1.645-6.99-1.233-12.337-3.906-16.038-8.019-3.701-4.318-5.758-9.459-5.758-15.627 0-7.403 2.468-13.366 7.197-17.89 4.524-4.523 11.104-6.785 19.534-6.785zm107.335.617v11.31h-22.413v72.995H256V48.938h-22.413v-11.31zm47.91 0 29.61 84.305h-12.543l-6.374-18.917h-31.05l-6.374 18.917h-13.16l29.61-84.305zm95.82 0v11.31h-22.413v72.995H399.73V48.938h-22.413v-11.31zm76.698 0v11.926h-39.891v24.058h33.927v11.31h-33.927v24.88h39.89v11.926H458.95v-84.1zM334.137 54.9h-.206l-11.926 36.807h23.852z"/>
</svg>
